src/gui/emoticons/cherries.svg

<svg xmlns="http://www.w3.org/2000/svg" xmlns:xlink="http://www.w3.org/1999/xlink" width="16pt" height="16pt" version="1.1" viewBox="0 0 16 16"><defs><linearGradient id="linear0" x1="67.838" x2="104" y1="11.342" y2="46.521" gradientTransform="matrix(0.125,0,0,0.125,0,0)" gradientUnits="userSpaceOnUse"><stop offset=".123" style="stop-color:#689f38;stop-opacity:1"/><stop offset=".322" style="stop-color:#73a743;stop-opacity:1"/><stop offset=".668" style="stop-color:#8ebd60;stop-opacity:1"/><stop offset=".993" style="stop-color:#aed581;stop-opacity:1"/></linearGradient><filter id="alpha" width="100%" height="100%" x="0%" y="0%" filterUnits="objectBoundingBox"><feColorMatrix in="SourceGraphic" type="matrix" values="0 0 0 0 1 0 0 0 0 1 0 0 0 0 1 0 0 0 1 0"/></filter><mask id="mask0"><g filter="url(#alpha)"><rect width="16" height="16" x="0" y="0" style="fill:#000;fill-opacity:.2;stroke:none"/></g></mask><clipPath id="clip1"><rect width="16" height="16" x="0" y="0"/></clipPath><g id="surface5" clip-path="url(#clip1)"><path style="stroke:none;fill-rule:nonzero;fill:#424242;fill-opacity:1" d="M 9.976562 1.820312 L 9.976562 2.195312 C 10.527344 2.195312 11.589844 2.339844 12.496094 3.304688 C 12.925781 3.761719 13.054688 4.378906 13.191406 5.035156 C 13.289062 5.5 13.386719 5.972656 13.601562 6.382812 C 13.453125 6.363281 13.308594 6.339844 13.160156 6.3125 C 12.136719 6.128906 10.972656 5.917969 10.171875 5.085938 C 9.3125 4.199219 9.222656 2.960938 9.242188 2.289062 C 9.449219 2.226562 9.707031 2.195312 9.976562 2.195312 L 9.976562 1.820312 M 9.976562 1.820312 C 9.515625 1.820312 9.128906 1.90625 8.882812 2.023438 C 8.847656 2.457031 8.753906 4.160156 9.902344 5.347656 C 10.789062 6.265625 12.039062 6.492188 13.09375 6.683594 C 13.65625 6.785156 14.136719 6.8125 14.484375 6.820312 C 13.304688 6.0625 13.828125 4.175781 12.769531 3.046875 C 11.890625 2.109375 10.8125 1.820312 9.976562 1.820312 Z M 9.976562 1.820312"/></g><linearGradient id="linear1" x1="63.444" x2="63.444" y1="6.595" y2="85.465" gradientTransform="matrix(0.124975,-0.0024,0.0024,0.124975,-0.148487,0.155087)" gradientUnits="userSpaceOnUse"><stop offset=".003" style="stop-color:#a67c52;stop-opacity:1"/><stop offset=".214" style="stop-color:#9f754c;stop-opacity:1"/><stop offset=".523" style="stop-color:#8b623a;stop-opacity:1"/><stop offset=".892" style="stop-color:#6b431d;stop-opacity:1"/><stop offset="1" style="stop-color:#603813;stop-opacity:1"/></linearGradient><mask id="mask1"><g filter="url(#alpha)"><rect width="16" height="16" x="0" y="0" style="fill:#000;fill-opacity:.2;stroke:none"/></g></mask><clipPath id="clip2"><rect width="16" height="16" x="0" y="0"/></clipPath><g id="surface8" clip-path="url(#clip2)"><path style="stroke:none;fill-rule:nonzero;fill:#424242;fill-opacity:1" d="M 7.621094 1.035156 C 8.882812 5.9375 10.507812 8.59375 11.199219 9.566406 C 9.671875 8.050781 8.15625 4.367188 8.023438 3.574219 C 8.007812 3.453125 7.90625 3.367188 7.789062 3.363281 L 7.777344 3.363281 C 7.664062 3.363281 7.5625 3.441406 7.535156 3.554688 L 7.53125 3.578125 C 7.15625 5.148438 6.535156 7.757812 4.796875 10.222656 L 4.675781 10.199219 C 5.285156 9.335938 6.808594 6.8125 7.453125 2.394531 C 7.460938 2.351562 7.457031 2.3125 7.441406 2.273438 C 7.28125 1.832031 7.089844 1.445312 6.953125 1.195312 L 7.621094 1.035156 M 7.800781 0.738281 L 6.574219 1.027344 C 6.574219 1.027344 6.941406 1.621094 7.207031 2.359375 C 6.410156 7.816406 4.234375 10.375 4.234375 10.375 L 4.910156 10.496094 C 6.753906 7.945312 7.386719 5.265625 7.777344 3.613281 C 7.914062 4.449219 9.632812 8.699219 11.367188 10.050781 L 11.714844 9.835938 C 11.714844 9.835938 9.421875 7.175781 7.800781 0.738281 Z M 7.800781 0.738281"/></g><radialGradient id="radial0" cx="82.352" cy="90.475" r="19.968" fx="82.352" fy="90.475" gradientTransform="matrix(0.122412,-0.0253,0.0253,0.122412,-2.1995,2.589875)" gradientUnits="userSpaceOnUse"><stop offset=".007" style="stop-color:#ff817d;stop-opacity:1"/><stop offset="1" style="stop-color:#cd0000;stop-opacity:1"/></radialGradient><mask id="mask2"><g filter="url(#alpha)"><rect width="16" height="16" x="0" y="0" style="fill:#000;fill-opacity:.2;stroke:none"/></g></mask><clipPath id="clip3"><rect width="16" height="16" x="0" y="0"/></clipPath><g id="surface11" clip-path="url(#clip3)"><path style="stroke:none;fill-rule:nonzero;fill:#424242;fill-opacity:1" d="M 12.535156 9.109375 C 13.019531 9.109375 13.496094 9.285156 13.875 9.605469 C 14.304688 9.960938 14.582031 10.476562 14.6875 11.09375 C 14.902344 12.417969 13.890625 14.21875 12.78125 14.449219 C 12.671875 14.46875 12.609375 14.5 12.535156 14.5 L 12.476562 14.5 C 12.363281 14.5 12.222656 14.476562 12.003906 14.519531 C 11.765625 14.570312 11.632812 14.613281 11.523438 14.660156 C 11.4375 14.695312 11.378906 14.714844 11.257812 14.738281 C 11.164062 14.757812 11.066406 14.765625 10.964844 14.765625 C 9.855469 14.765625 8.480469 13.609375 8.1875 12.4375 C 7.972656 11.574219 8.203125 10.949219 8.4375 10.578125 C 8.742188 10.09375 9.21875 9.753906 9.753906 9.644531 C 10.011719 9.589844 10.210938 9.585938 10.402344 9.582031 C 10.582031 9.578125 10.765625 9.574219 10.980469 9.53125 C 11.191406 9.484375 11.363281 9.417969 11.527344 9.347656 C 11.703125 9.277344 11.886719 9.203125 12.144531 9.148438 C 12.273438 9.125 12.402344 9.109375 12.535156 9.109375 M 12.535156 8.726562 C 12.378906 8.726562 12.222656 8.742188 12.070312 8.773438 C 11.527344 8.886719 11.289062 9.074219 10.902344 9.152344 C 10.515625 9.234375 10.21875 9.15625 9.675781 9.265625 C 8.449219 9.519531 7.390625 10.820312 7.816406 12.527344 C 8.144531 13.851562 9.660156 15.144531 10.96875 15.144531 C 11.09375 15.144531 11.214844 15.132812 11.335938 15.109375 C 11.667969 15.039062 11.695312 14.972656 12.082031 14.890625 C 12.265625 14.855469 12.375 14.875 12.476562 14.875 L 12.535156 14.875 C 12.625 14.875 12.714844 14.847656 12.859375 14.816406 C 14.230469 14.535156 15.308594 12.519531 15.0625 11.042969 C 14.8125 9.519531 13.644531 8.726562 12.535156 8.726562 Z M 12.535156 8.726562"/></g><radialGradient id="radial1" cx="26.446" cy="87.138" r="28.724" fx="26.446" fy="87.138" gradientTransform="matrix(0.1238,-0.0172875,0.0172875,0.1238,-1.528125,0.805325)" gradientUnits="userSpaceOnUse"><stop offset=".007" style="stop-color:#ff817d;stop-opacity:1"/><stop offset=".393" style="stop-color:#ed524f;stop-opacity:1"/><stop offset="1" style="stop-color:#cd0000;stop-opacity:1"/></radialGradient><mask id="mask3"><g filter="url(#alpha)"><rect width="16" height="16" x="0" y="0" style="fill:#000;fill-opacity:.2;stroke:none"/></g></mask><clipPath id="clip4"><rect width="16" height="16" x="0" y="0"/></clipPath><g id="surface14" clip-path="url(#clip4)"><path style="stroke:none;fill-rule:nonzero;fill:#424242;fill-opacity:1" d="M 3.621094 9.207031 C 3.714844 9.207031 3.8125 9.214844 3.902344 9.230469 C 4.164062 9.265625 4.351562 9.332031 4.535156 9.394531 C 4.703125 9.453125 4.878906 9.515625 5.09375 9.546875 C 5.207031 9.5625 5.320312 9.570312 5.453125 9.570312 C 5.523438 9.570312 5.597656 9.570312 5.671875 9.566406 C 5.742188 9.5625 5.816406 9.5625 5.894531 9.5625 C 6.042969 9.5625 6.175781 9.570312 6.320312 9.59375 C 6.855469 9.671875 7.351562 9.984375 7.675781 10.445312 C 7.929688 10.804688 8.199219 11.417969 8.03125 12.292969 C 7.796875 13.519531 6.417969 14.769531 5.300781 14.769531 C 5.230469 14.769531 5.160156 14.765625 5.09375 14.753906 C 4.972656 14.734375 4.910156 14.710938 4.828125 14.679688 C 4.71875 14.640625 4.582031 14.589844 4.339844 14.554688 C 4.214844 14.535156 4.109375 14.527344 4 14.527344 C 3.9375 14.527344 3.882812 14.527344 3.835938 14.53125 C 3.800781 14.535156 3.765625 14.535156 3.726562 14.535156 C 3.671875 14.535156 3.621094 14.53125 3.558594 14.519531 C 2.4375 14.351562 1.324219 12.640625 1.472656 11.308594 C 1.625 9.863281 2.695312 9.207031 3.621094 9.207031 M 3.621094 8.824219 C 2.472656 8.824219 1.261719 9.671875 1.085938 11.265625 C 0.925781 12.753906 2.113281 14.695312 3.5 14.902344 C 3.589844 14.914062 3.664062 14.917969 3.726562 14.917969 C 3.820312 14.917969 3.898438 14.910156 4 14.910156 C 4.074219 14.910156 4.164062 14.914062 4.285156 14.933594 C 4.675781 14.992188 4.703125 15.082031 5.039062 15.132812 C 5.125 15.144531 5.210938 15.148438 5.300781 15.148438 C 6.632812 15.148438 8.140625 13.738281 8.40625 12.363281 C 8.738281 10.632812 7.613281 9.394531 6.375 9.210938 C 6.1875 9.183594 6.035156 9.175781 5.894531 9.175781 C 5.734375 9.175781 5.59375 9.183594 5.453125 9.183594 C 5.355469 9.183594 5.257812 9.179688 5.148438 9.164062 C 4.757812 9.105469 4.507812 8.929688 3.960938 8.847656 C 3.847656 8.832031 3.734375 8.824219 3.621094 8.824219 Z M 3.621094 8.824219"/></g></defs><g id="surface1"><path style="stroke:none;fill-rule:nonzero;fill:#558b2f;fill-opacity:1" d="M 9.261719 1.925781 C 9.324219 1.972656 9.386719 2.027344 9.394531 2.105469 C 9.402344 2.179688 9.355469 2.246094 9.3125 2.308594 C 9.273438 2.359375 9.230469 2.410156 9.171875 2.421875 C 9.109375 2.433594 9.046875 2.398438 8.992188 2.363281 C 8.738281 2.1875 8.5 1.949219 8.191406 1.917969 C 8.085938 1.90625 7.789062 1.886719 7.863281 1.699219 C 7.910156 1.582031 8.128906 1.578125 8.230469 1.578125 C 8.59375 1.578125 8.964844 1.710938 9.261719 1.925781 Z M 9.261719 1.925781"/><path style="stroke:none;fill-rule:nonzero;fill:url(#linear0)" d="M 8.882812 2.023438 C 9.570312 1.691406 11.40625 1.59375 12.769531 3.046875 C 13.828125 4.175781 13.304688 6.0625 14.484375 6.820312 C 14.140625 6.8125 13.65625 6.785156 13.09375 6.683594 C 12.039062 6.492188 10.789062 6.265625 9.902344 5.347656 C 8.753906 4.160156 8.847656 2.457031 8.882812 2.023438 Z M 8.882812 2.023438"/><use mask="url(#mask0)" xlink:href="#surface5"/><path style="stroke:none;fill-rule:nonzero;fill:#558b2f;fill-opacity:1" d="M 9.386719 2.226562 C 9.386719 2.226562 9.476562 2.234375 9.621094 2.28125 C 9.695312 2.304688 9.78125 2.339844 9.878906 2.378906 C 9.976562 2.425781 10.085938 2.476562 10.199219 2.546875 C 10.3125 2.613281 10.425781 2.699219 10.546875 2.792969 C 10.601562 2.84375 10.660156 2.894531 10.71875 2.949219 C 10.773438 3.007812 10.832031 3.0625 10.886719 3.125 C 10.996094 3.25 11.101562 3.390625 11.191406 3.53125 C 11.28125 3.671875 11.375 3.820312 11.460938 3.964844 C 11.550781 4.109375 11.636719 4.257812 11.722656 4.398438 C 11.808594 4.542969 11.898438 4.675781 11.988281 4.804688 C 12.078125 4.933594 12.171875 5.050781 12.265625 5.160156 C 12.363281 5.265625 12.457031 5.363281 12.550781 5.445312 C 12.644531 5.53125 12.734375 5.601562 12.816406 5.667969 C 12.902344 5.726562 12.976562 5.777344 13.035156 5.820312 C 13.160156 5.902344 13.234375 5.949219 13.234375 5.949219 L 13.230469 5.949219 C 13.230469 5.949219 13.152344 5.914062 13.015625 5.851562 C 12.953125 5.820312 12.871094 5.773438 12.777344 5.722656 C 12.691406 5.667969 12.585938 5.609375 12.484375 5.53125 C 12.429688 5.492188 12.378906 5.449219 12.324219 5.40625 C 12.269531 5.359375 12.214844 5.3125 12.160156 5.261719 C 12.050781 5.160156 11.949219 5.039062 11.84375 4.914062 C 11.636719 4.664062 11.453125 4.371094 11.265625 4.085938 C 11.171875 3.945312 11.082031 3.804688 10.988281 3.667969 C 10.894531 3.53125 10.800781 3.40625 10.699219 3.289062 C 10.597656 3.171875 10.492188 3.066406 10.390625 2.972656 C 10.28125 2.878906 10.179688 2.792969 10.078125 2.722656 C 9.882812 2.574219 9.699219 2.46875 9.570312 2.402344 C 9.441406 2.335938 9.363281 2.304688 9.363281 2.304688 Z M 9.386719 2.226562"/><path style="stroke:none;fill-rule:nonzero;fill:url(#linear1)" d="M 7.800781 0.738281 L 6.574219 1.027344 C 6.574219 1.027344 6.941406 1.621094 7.207031 2.359375 C 6.410156 7.816406 4.234375 10.375 4.234375 10.375 L 4.910156 10.496094 C 6.753906 7.945312 7.386719 5.265625 7.777344 3.613281 C 7.914062 4.449219 9.632812 8.699219 11.367188 10.050781 L 11.714844 9.835938 C 11.714844 9.835938 9.421875 7.175781 7.800781 0.738281 Z M 7.800781 0.738281"/><use mask="url(#mask1)" xlink:href="#surface8"/><path style="stroke:none;fill-rule:nonzero;fill:url(#radial0)" d="M 12.070312 8.773438 C 11.527344 8.886719 11.289062 9.074219 10.902344 9.152344 C 10.515625 9.234375 10.21875 9.15625 9.675781 9.265625 C 8.449219 9.519531 7.390625 10.820312 7.816406 12.527344 C 8.175781 13.980469 9.960938 15.390625 11.335938 15.105469 C 11.667969 15.039062 11.695312 14.945312 12.082031 14.863281 C 12.46875 14.785156 12.527344 14.859375 12.859375 14.792969 C 14.230469 14.507812 15.304688 12.503906 15.0625 11.03125 C 14.777344 9.292969 13.296875 8.519531 12.070312 8.773438 Z M 12.070312 8.773438"/><use mask="url(#mask2)" xlink:href="#surface11"/><path style="stroke:none;fill-rule:nonzero;fill:url(#radial1)" d="M 6.375 9.210938 C 5.828125 9.128906 5.542969 9.222656 5.152344 9.164062 C 4.761719 9.105469 4.507812 8.929688 3.960938 8.847656 C 2.722656 8.664062 1.277344 9.515625 1.085938 11.265625 C 0.925781 12.753906 2.113281 14.695312 3.5 14.902344 C 3.832031 14.953125 3.890625 14.875 4.285156 14.933594 C 4.675781 14.992188 4.703125 15.082031 5.035156 15.132812 C 6.421875 15.339844 8.125 13.832031 8.40625 12.363281 C 8.738281 10.636719 7.613281 9.398438 6.375 9.210938 Z M 6.375 9.210938"/><use mask="url(#mask3)" xlink:href="#surface14"/></g></svg>

<svg xmlns="http://www.w3.org/2000/svg" xmlns:xlink="http://www.w3.org/1999/xlink" width="16pt" height="16pt" viewBox="0 0 16 16"><defs><clipPath id="b"><path d="M0 0h16v16H0z"/></clipPath><clipPath id="c"><path d="M0 0h16v16H0z"/></clipPath><clipPath id="d"><path d="M0 0h16v16H0z"/></clipPath><clipPath id="e"><path d="M0 0h16v16H0z"/></clipPath><mask id="g"><g filter="url(#a)"><path d="M0 0h16v16H0z" style="fill:#000;fill-opacity:.2;stroke:none"/></g></mask><mask id="j"><g filter="url(#a)"><path d="M0 0h16v16H0z" style="fill:#000;fill-opacity:.2;stroke:none"/></g></mask><mask id="m"><g filter="url(#a)"><path d="M0 0h16v16H0z" style="fill:#000;fill-opacity:.2;stroke:none"/></g></mask><mask id="p"><g filter="url(#a)"><path d="M0 0h16v16H0z" style="fill:#000;fill-opacity:.2;stroke:none"/></g></mask><g id="h" clip-path="url(#b)"><path d="M9.977 1.82v.375c.55 0 1.613.145 2.52 1.11.429.457.558 1.074.694 1.73.098.465.196.938.41 1.348a9 9 0 0 1-.44-.07c-1.024-.184-2.188-.395-2.99-1.227-.858-.887-.948-2.125-.929-2.797.207-.062.465-.094.735-.094zm0 0c-.461 0-.848.086-1.094.203-.035.434-.13 2.137 1.02 3.325.886.918 2.136 1.144 3.19 1.336a9 9 0 0 0 1.391.136c-1.18-.758-.656-2.644-1.714-3.773A3.8 3.8 0 0 0 9.977 1.82m0 0" style="stroke:none;fill-rule:nonzero;fill:#424242;fill-opacity:1"/></g><g id="k" clip-path="url(#c)"><path d="M7.621 1.035c1.262 4.903 2.887 7.559 3.578 8.531-1.527-1.515-3.043-5.199-3.176-5.992a.24.24 0 0 0-.234-.21h-.012a.25.25 0 0 0-.242.19l-.004.024c-.375 1.57-.996 4.18-2.734 6.645l-.121-.024c.61-.863 2.133-3.386 2.777-7.804a.2.2 0 0 0-.012-.122 8 8 0 0 0-.488-1.078zm.18-.297-1.227.29s.367.593.633 1.331c-.797 5.457-2.973 8.016-2.973 8.016l.676.121c1.844-2.55 2.477-5.23 2.867-6.883.137.836 1.856 5.086 3.59 6.438l.348-.215S9.422 7.176 7.8.738m0 0" style="stroke:none;fill-rule:nonzero;fill:#424242;fill-opacity:1"/></g><g id="n" clip-path="url(#d)"><path d="M12.535 9.11c.485 0 .961.175 1.34.495.43.356.707.872.813 1.489.214 1.324-.797 3.125-1.907 3.355-.11.02-.172.051-.246.051h-.058c-.114 0-.254-.023-.473.02a2.5 2.5 0 0 0-.48.14 1.434 1.434 0 0 1-.559.105c-1.11 0-2.485-1.156-2.777-2.327-.215-.864.015-1.489.25-1.86a2.06 2.06 0 0 1 1.316-.933c.258-.055.457-.06.648-.063.18-.004.364-.008.578-.05.211-.048.383-.114.547-.184.176-.07.36-.145.618-.2.128-.023.257-.039.39-.039m0-.382q-.235 0-.465.046c-.543.114-.78.301-1.168.38-.386.081-.683.003-1.226.113-1.227.254-2.285 1.554-1.86 3.261.329 1.325 1.844 2.618 3.153 2.618q.186 0 .367-.036c.332-.07.36-.136.746-.218.184-.036.293-.016.395-.016h.058c.09 0 .18-.027.324-.059 1.371-.28 2.45-2.296 2.204-3.773-.25-1.523-1.418-2.316-2.528-2.316m0 0" style="stroke:none;fill-rule:nonzero;fill:#424242;fill-opacity:1"/></g><g id="q" clip-path="url(#e)"><path d="M3.621 9.207c.094 0 .192.008.281.023.262.036.45.102.633.165.168.058.344.12.559.152.113.015.226.023.36.023q.106.001.218-.004.105-.005.223-.004c.148 0 .28.008.425.032.535.078 1.032.39 1.356.851.254.36.523.973.355 1.848-.234 1.227-1.613 2.477-2.73 2.477a1.2 1.2 0 0 1-.473-.09c-.11-.04-.246-.09-.488-.125a2 2 0 0 0-.34-.028q-.093-.001-.164.004-.051.005-.11.004a1 1 0 0 1-.167-.015c-1.122-.168-2.235-1.88-2.086-3.211.152-1.446 1.222-2.102 2.148-2.102m0-.383c-1.148 0-2.36.848-2.535 2.442-.16 1.488 1.027 3.43 2.414 3.636q.134.017.227.016c.093 0 .171-.008.273-.008.074 0 .164.004.285.024.39.058.418.148.754.199q.128.016.262.015c1.332 0 2.84-1.41 3.105-2.785.332-1.73-.793-2.968-2.031-3.152a3 3 0 0 0-.48-.035c-.16 0-.301.008-.442.008-.098 0-.195-.004-.305-.02-.39-.059-.64-.234-1.187-.316a2.5 2.5 0 0 0-.34-.024m0 0" style="stroke:none;fill-rule:nonzero;fill:#424242;fill-opacity:1"/></g><radialGradient id="l" cx="82.352" cy="90.475" r="19.968" fx="82.352" fy="90.475" gradientTransform="rotate(-11.677 11.564 12.05)scale(.125)" gradientUnits="userSpaceOnUse"><stop offset=".007" style="stop-color:#ff817d;stop-opacity:1"/><stop offset="1" style="stop-color:#cd0000;stop-opacity:1"/></radialGradient><radialGradient id="o" cx="26.446" cy="87.138" r="28.724" fx="26.446" fy="87.138" gradientTransform="rotate(-7.95 5.031 11.399)scale(.125)" gradientUnits="userSpaceOnUse"><stop offset=".007" style="stop-color:#ff817d;stop-opacity:1"/><stop offset=".393" style="stop-color:#ed524f;stop-opacity:1"/><stop offset="1" style="stop-color:#cd0000;stop-opacity:1"/></radialGradient><linearGradient id="f" x1="67.838" x2="104" y1="11.342" y2="46.521" gradientTransform="scale(.125)" gradientUnits="userSpaceOnUse"><stop offset=".123" style="stop-color:#689f38;stop-opacity:1"/><stop offset=".322" style="stop-color:#73a743;stop-opacity:1"/><stop offset=".668" style="stop-color:#8ebd60;stop-opacity:1"/><stop offset=".993" style="stop-color:#aed581;stop-opacity:1"/></linearGradient><linearGradient id="i" x1="63.444" x2="63.444" y1="6.595" y2="85.465" gradientTransform="rotate(-1.1 8.002 7.81)scale(.125)" gradientUnits="userSpaceOnUse"><stop offset=".003" style="stop-color:#a67c52;stop-opacity:1"/><stop offset=".214" style="stop-color:#9f754c;stop-opacity:1"/><stop offset=".523" style="stop-color:#8b623a;stop-opacity:1"/><stop offset=".892" style="stop-color:#6b431d;stop-opacity:1"/><stop offset="1" style="stop-color:#603813;stop-opacity:1"/></linearGradient><filter id="a" width="100%" height="100%" x="0%" y="0%" filterUnits="objectBoundingBox"><feColorMatrix in="SourceGraphic" values="0 0 0 0 1 0 0 0 0 1 0 0 0 0 1 0 0 0 1 0"/></filter></defs><path d="M9.262 1.926c.062.047.125.101.133.18.007.074-.04.14-.082.203-.04.05-.083.101-.141.113-.063.012-.125-.024-.18-.059-.254-.175-.492-.414-.8-.445-.106-.012-.403-.031-.329-.219.047-.117.266-.12.367-.12.364 0 .735.132 1.032.347m0 0" style="stroke:none;fill-rule:nonzero;fill:#558b2f;fill-opacity:1"/><path d="M8.883 2.023c.687-.332 2.523-.43 3.887 1.024 1.058 1.129.535 3.016 1.714 3.773a9 9 0 0 1-1.39-.136c-1.055-.192-2.305-.418-3.192-1.336-1.148-1.188-1.054-2.891-1.02-3.325m0 0" style="stroke:none;fill-rule:nonzero;fill:url(#f)"/><use xlink:href="#h" mask="url(#g)"/><path d="M9.387 2.227s.09.007.234.054q.111.038.258.098c.098.047.207.098.32.168.114.066.227.152.348.246l.172.156c.054.059.113.114.168.176.11.125.215.266.304.406.09.14.184.29.27.434.09.144.176.293.262.433.086.145.175.278.265.407q.136.192.278.355.145.16.285.285c.094.086.183.157.265.223l.22.152.198.13h-.004l-.214-.098c-.063-.032-.145-.079-.239-.13-.086-.054-.191-.113-.293-.19q-.08-.06-.16-.126a5 5 0 0 1-.164-.144c-.11-.102-.21-.223-.316-.348-.207-.25-.39-.543-.578-.828q-.139-.211-.278-.418a4 4 0 0 0-.289-.379 4 4 0 0 0-.308-.316c-.11-.094-.211-.18-.313-.25a3.5 3.5 0 0 0-.508-.32c-.129-.067-.207-.098-.207-.098Zm0 0" style="stroke:none;fill-rule:nonzero;fill:#558b2f;fill-opacity:1"/><path d="m7.8.738-1.226.29s.367.593.633 1.331c-.797 5.457-2.973 8.016-2.973 8.016l.676.121c1.844-2.55 2.477-5.23 2.867-6.883.137.836 1.856 5.086 3.59 6.438l.348-.215S9.422 7.176 7.8.738m0 0" style="stroke:none;fill-rule:nonzero;fill:url(#i)"/><use xlink:href="#k" mask="url(#j)"/><path d="M12.07 8.773c-.543.114-.78.301-1.168.38-.386.081-.683.003-1.226.113-1.227.254-2.285 1.554-1.86 3.261.36 1.453 2.145 2.864 3.52 2.578.332-.066.36-.16.746-.242.387-.078.445-.004.777-.07 1.371-.285 2.446-2.29 2.204-3.762-.286-1.738-1.766-2.511-2.993-2.258m0 0" style="stroke:none;fill-rule:nonzero;fill:url(#l)"/><use xlink:href="#n" mask="url(#m)"/><path d="M6.375 9.21c-.547-.081-.832.013-1.223-.046-.39-.059-.644-.234-1.191-.316-1.238-.184-2.684.668-2.875 2.418-.16 1.488 1.027 3.43 2.414 3.636.332.051.39-.027.785.032.39.058.418.148.75.199 1.387.207 3.09-1.301 3.371-2.77.332-1.726-.793-2.965-2.031-3.152m0 0" style="stroke:none;fill-rule:nonzero;fill:url(#o)"/><use xlink:href="#q" mask="url(#p)"/></svg>
